dist/assets/img/white-logo.svg

<svg width="191" height="21" viewBox="0 0 191 21" fill="none" xmlns="http://www.w3.org/2000/svg">
<g id="white-logo">
<g id="XMLID_234_">
<path id="XMLID_243_" d="M14.4615 1.84615V12.4615C14.4615 16 12.9231 17.4615 9.23077 17.4615C5.53846 17.4615 4 16 4 12.4615V1.38461H0.461538C0.230769 1.38461 0 1.61538 0 1.84615V12.6154C0 18.5385 3.76923 20.6154 9.23077 20.6154C14.6923 20.6154 18.4615 18.5385 18.4615 12.6154V1.38461H14.9231C14.6923 1.38461 14.4615 1.53846 14.4615 1.84615Z" fill="white"/>
<path id="XMLID_242_" d="M65.923 4.46154C66.2307 4.46154 66.3846 4.38461 66.4615 4.15384L67.4615 1.61538C67.5384 1.46154 67.4615 1.38461 67.3077 1.38461H53C51.6923 1.38461 51.1538 1.76923 51.1538 2.69231V19.1538C51.1538 19.9231 51.5384 20.3077 52.5384 20.3077H65.8461C66.1538 20.3077 66.3077 20.2308 66.3846 20L67.3846 17.4615C67.4615 17.3077 67.3846 17.2308 67.2307 17.2308H55.0769V13.8462C55.0769 12.6923 55.6923 12.1538 57.4615 12.1538H62.7692C63.0769 12.1538 63.2307 12.0769 63.3077 11.8462L64.3077 9.38461C64.3846 9.23077 64.3077 9.15384 64.1538 9.15384H55.1538V4.38461H65.923V4.46154Z" fill="white"/>
<path id="XMLID_238_" fill-rule="evenodd" clip-rule="evenodd" d="M40.7692 10.3077C42.3077 9.46154 42.9231 8 42.9231 6.15384C42.9231 2 39.5384 1.38461 36 1.38461H27.9231C26.6154 1.38461 26.0769 1.76923 26.0769 2.69231V19.1538C26.0769 19.9231 26.4615 20.3077 27.4615 20.3077H37.3846C41.1538 20.3077 43.7692 18.8462 43.7692 15.0769C43.8461 12.7692 42.9231 10.8462 40.7692 10.3077ZM30.0769 4.38461H36.3077C38.3846 4.38461 39 5.15384 39 6.76923C39 8.38461 38.3846 9.15384 36.3077 9.15384H30.0769V4.38461ZM30.0769 17.2308H37.0769C39.3077 17.2308 39.9231 16.4615 39.9231 14.6923C39.9231 12.9231 39.3077 12.0769 37.0769 12.0769H32.4615C30.6923 12.0769 30.0769 12.6154 30.0769 13.7692V17.2308Z" fill="white"/>
<path id="XMLID_235_" fill-rule="evenodd" clip-rule="evenodd" d="M88 12.6923L92.2308 20C92.3077 20.0769 92.3077 20.3077 92.1539 20.3077H88.5385C88.2308 20.3077 88.1539 20.2308 88 20L84.1539 13.0769H80.6923C78.9231 13.0769 78.3077 13.6154 78.3077 14.7692V20.3077H74.8462C74.6154 20.3077 74.3846 20.0769 74.3846 19.8462V2.69231C74.3846 1.76923 74.9231 1.38461 76.2308 1.38461H84.3077C89 1.38461 91.8462 2.61538 91.8462 7.23077C91.8462 10.7692 90.077 12.1538 88 12.6923ZM78.2308 10.1538H84.8462C87.3077 10.1538 87.8462 9.23077 87.8462 7.23077C87.8462 5.30769 87.3077 4.38461 84.8462 4.38461H78.2308V10.1538Z" fill="white"/>
</g>
<g id="XMLID_224_">
<path id="XMLID_232_" d="M121.692 18.6154L121.615 20.3077H107.615V1.38461H121.077L121.154 3.15384H109.538V9.69231H119.538V11.2308H109.538V18.6154H121.692Z" fill="#57AD56" stroke="#57AD56" stroke-width="0.25"/>
<g id="XMLID_229_">
<path fill-rule="evenodd" clip-rule="evenodd" d="M133.308 15.3846H144.462L146.615 20.3077H148.769L140.077 1.38461H137.846L129.077 20.3077H131.154L133.308 15.3846ZM134 13.7692L138.077 4.61538L138.846 2.69231H138.923L139.692 4.61538L143.692 13.7692H134Z" fill="#57AD56"/>
<path d="M144.462 15.3846L144.576 15.3345L144.543 15.2596H144.462V15.3846ZM133.308 15.3846V15.2596H133.226L133.193 15.3345L133.308 15.3846ZM146.615 20.3077L146.501 20.3578L146.534 20.4327H146.615V20.3077ZM148.769 20.3077V20.4327H148.964L148.883 20.2555L148.769 20.3077ZM140.077 1.38461L140.19 1.33244L140.157 1.25961H140.077V1.38461ZM137.846 1.38461V1.25961H137.766L137.733 1.33206L137.846 1.38461ZM129.077 20.3077L128.963 20.2551L128.881 20.4327H129.077V20.3077ZM131.154 20.3077V20.4327H131.236L131.268 20.3578L131.154 20.3077ZM138.077 4.61538L138.191 4.66628L138.193 4.66181L138.077 4.61538ZM134 13.7692L133.886 13.7184L133.807 13.8942H134V13.7692ZM138.846 2.69231V2.56731H138.762L138.73 2.64588L138.846 2.69231ZM138.923 2.69231L139.039 2.64588L139.008 2.56731H138.923V2.69231ZM139.692 4.61538L139.576 4.66183L139.578 4.66543L139.692 4.61538ZM143.692 13.7692V13.8942H143.883L143.807 13.7192L143.692 13.7692ZM144.462 15.2596H133.308V15.5096H144.462V15.2596ZM146.73 20.2576L144.576 15.3345L144.347 15.4347L146.501 20.3578L146.73 20.2576ZM148.769 20.1827H146.615V20.4327H148.769V20.1827ZM139.963 1.43679L148.656 20.3599L148.883 20.2555L140.19 1.33244L139.963 1.43679ZM137.846 1.50961H140.077V1.25961H137.846V1.50961ZM129.19 20.3602L137.96 1.43717L137.733 1.33206L128.963 20.2551L129.19 20.3602ZM131.154 20.1827H129.077V20.4327H131.154V20.1827ZM133.193 15.3345L131.039 20.2576L131.268 20.3578L133.422 15.4347L133.193 15.3345ZM137.963 4.56453L133.886 13.7184L134.114 13.8201L138.191 4.66624L137.963 4.56453ZM138.73 2.64588L137.961 4.56896L138.193 4.66181L138.962 2.73873L138.73 2.64588ZM138.923 2.56731H138.846V2.81731H138.923V2.56731ZM139.808 4.56896L139.039 2.64588L138.807 2.73873L139.576 4.66181L139.808 4.56896ZM143.807 13.7192L139.807 4.56533L139.578 4.66543L143.578 13.8193L143.807 13.7192ZM134 13.8942H143.692V13.6442H134V13.8942Z" fill="#57AD56"/>
</g>
<path id="XMLID_227_" d="M162.615 3.15384V20.3077H160.692V3.15384H153.615L153.692 1.38461H169.769V3.15384H162.615Z" fill="#57AD56" stroke="#57AD56" stroke-width="0.25"/>
<path id="XMLID_225_" d="M183.462 20.6923C180.846 20.6923 178.769 20.0769 177.077 19.0769L177.385 17.3846C179.154 18.3846 181.154 19 183.538 19C187.077 19 188.923 17.3846 188.923 15.0769C188.923 10.0769 177.385 12.6923 177.385 6.23077C177.385 3.46154 179.462 1 184.308 1C186.538 1 188.538 1.38462 190.154 2.15385L189.846 3.76923C188.077 3.07692 186.385 2.69231 184.385 2.69231C180.615 2.69231 179.231 4.38462 179.231 6.07692C179.231 10.8462 190.769 8.15385 190.769 14.9231C190.692 18.3077 188.231 20.6923 183.462 20.6923Z" fill="#57AD56" stroke="#57AD56" stroke-width="0.25"/>
</g>
</g>
</svg>

<svg width="191" height="21" viewBox="0 0 191 21" fill="none" xmlns="http://www.w3.org/2000/svg"><g fill="#fff"><path d="M14.461 1.846v10.615c0 3.539-1.538 5-5.23 5C5.538 17.462 4 16 4 12.462V1.385H.462c-.231 0-.462.23-.462.461v10.77c0 5.922 3.77 8 9.23 8 5.462 0 9.232-2.078 9.232-8V1.384h-3.539c-.23 0-.462.153-.462.461Zm51.462 2.616c.308 0 .462-.077.538-.308l1-2.539c.077-.153 0-.23-.153-.23H53c-1.308 0-1.846.384-1.846 1.307v16.462c0 .77.384 1.154 1.384 1.154h13.308c.308 0 .462-.077.539-.308l1-2.538c.076-.154 0-.231-.154-.231H55.077v-3.385c0-1.154.615-1.692 2.385-1.692h5.307c.308 0 .462-.077.539-.308l1-2.461c.077-.154 0-.231-.154-.231h-9v-4.77h10.769v.078Z"/><path fill-rule="evenodd" clip-rule="evenodd" d="M40.77 10.308c1.538-.846 2.153-2.308 2.153-4.154 0-4.154-3.385-4.77-6.923-4.77h-8.077c-1.308 0-1.846.385-1.846 1.308v16.462c0 .77.384 1.154 1.384 1.154h9.924c3.769 0 6.384-1.462 6.384-5.231.077-2.308-.846-4.23-3-4.77ZM30.076 4.385h6.23c2.078 0 2.693.769 2.693 2.384 0 1.616-.615 2.385-2.692 2.385h-6.231v-4.77Zm0 12.846h7c2.23 0 2.846-.77 2.846-2.539 0-1.769-.615-2.615-2.846-2.615h-4.615c-1.77 0-2.385.538-2.385 1.692v3.462ZM88 12.692 92.23 20c.078.077.078.308-.076.308h-3.615c-.308 0-.385-.077-.539-.308l-3.846-6.923h-3.462c-1.769 0-2.384.538-2.384 1.692v5.539h-3.462a.496.496 0 0 1-.461-.462V2.692c0-.923.538-1.307 1.846-1.307h8.077c4.692 0 7.538 1.23 7.538 5.846 0 3.538-1.769 4.923-3.846 5.461Zm-9.77-2.538h6.616c2.462 0 3-.923 3-2.923 0-1.923-.538-2.846-3-2.846h-6.615v5.769Z"/></g><g fill="#57AD56"><path d="m121.692 18.615-.077 1.693h-14V1.385h13.462l.077 1.769h-11.616v6.538h10v1.539h-10v7.384h12.154Z" stroke="#57AD56" stroke-width=".25"/><path fill-rule="evenodd" clip-rule="evenodd" d="M133.308 15.385h11.154l2.153 4.923h2.154l-8.692-18.923h-2.231l-8.769 18.923h2.077l2.154-4.923Zm.692-1.616 4.077-9.154.769-1.923h.077l.769 1.923 4 9.154H134Z"/><path d="m144.462 15.385.114-.05-.033-.075h-.081v.125Zm-11.154 0v-.125h-.082l-.033.075.115.05Zm13.307 4.923-.114.05.033.075h.081v-.125Zm2.154 0v.125h.195l-.081-.177-.114.052Zm-8.692-18.923.113-.053-.033-.072h-.08v.125Zm-2.231 0V1.26h-.08l-.033.072.113.053Zm-8.769 18.923-.114-.053-.082.178h.196v-.125Zm2.077 0v.125h.082l.032-.075-.114-.05Zm6.923-15.693.114.051.002-.004-.116-.047ZM134 13.77l-.114-.05-.079.175H134v-.125Zm4.846-11.077v-.125h-.084l-.032.079.116.046Zm.077 0 .116-.046-.031-.079h-.085v.125Zm.769 1.923-.116.047.002.003.114-.05Zm4 9.154v.125h.191l-.076-.175-.115.05Zm.77 1.49h-11.154v.25h11.154v-.25Zm2.268 4.999-2.154-4.923-.229.1 2.154 4.923.229-.1Zm2.039-.075h-2.154v.25h2.154v-.25Zm-8.806-18.746 8.693 18.923.227-.104-8.693-18.924-.227.105Zm-2.117.073h2.231v-.25h-2.231v.25Zm-8.656 18.85 8.77-18.923-.227-.105-8.77 18.923.227.105Zm1.964-.177h-2.077v.25h2.077v-.25Zm2.039-4.848-2.154 4.923.229.1 2.154-4.923-.229-.1Zm4.77-10.77-4.077 9.153.228.102 4.077-9.154-.228-.101Zm.767-1.92-.769 1.924.232.093.769-1.923-.232-.093Zm.193-.078h-.077v.25h.077v-.25Zm.885 2.002-.769-1.923-.232.093.769 1.923.232-.093Zm3.999 9.15-4-9.154-.229.1 4 9.154.229-.1Zm-9.807.175h9.692v-.25H134v.25Z"/><path d="M162.615 3.154v17.154h-1.923V3.154h-7.077l.077-1.77h16.077v1.77h-7.154Zm20.847 17.538c-2.616 0-4.693-.615-6.385-1.615l.308-1.692A12.2 12.2 0 0 0 183.538 19c3.539 0 5.385-1.615 5.385-3.923 0-5-11.538-2.385-11.538-8.846 0-2.77 2.077-5.231 6.923-5.231 2.23 0 4.23.385 5.846 1.154l-.308 1.615c-1.769-.692-3.461-1.077-5.461-1.077-3.77 0-5.154 1.693-5.154 3.385 0 4.77 11.538 2.077 11.538 8.846-.077 3.385-2.538 5.77-7.307 5.77Z" stroke="#57AD56" stroke-width=".25"/></g></svg>
